assets/images/svg/question.svg

<svg width="61" height="100" viewBox="0 0 61 100" fill="none" xmlns="http://www.w3.org/2000/svg">
<path d="M30.3736 99.1749C36.7761 99.1749 41.9664 93.9829 41.9664 87.5783C41.9664 81.1737 36.7761 75.9818 30.3736 75.9818C23.971 75.9818 18.7808 81.1737 18.7808 87.5783C18.7808 93.9829 23.971 99.1749 30.3736 99.1749Z" fill="#24C1D8"/>
<path d="M30.3736 99.1749C36.7761 99.1749 41.9664 93.9829 41.9664 87.5783C41.9664 81.1737 36.7761 75.9818 30.3736 75.9818C23.971 75.9818 18.7808 81.1737 18.7808 87.5783C18.7808 93.9829 23.971 99.1749 30.3736 99.1749Z" fill="url(#paint0_linear)"/>
<path d="M30.3737 0.217529C13.7537 0.217529 0.232422 13.7432 0.232422 30.3686V33.2677H23.418V30.3686C23.418 26.5319 26.5382 23.4107 30.3737 23.4107C34.2092 23.4107 37.3294 26.5319 37.3294 30.3686C37.3294 32.4131 36.4323 34.3481 34.8679 35.6781L18.7809 49.3595V70.1834H41.9665V60.0832L49.8836 53.3501C56.6399 47.6071 60.515 39.2309 60.515 30.3686C60.515 13.7432 46.9937 0.217529 30.3737 0.217529V0.217529Z" fill="#24C1D8"/>
<path d="M30.3737 0.217529C13.7537 0.217529 0.232422 13.7432 0.232422 30.3686V33.2677H23.418V30.3686C23.418 26.5319 26.5382 23.4107 30.3737 23.4107C34.2092 23.4107 37.3294 26.5319 37.3294 30.3686C37.3294 32.4131 36.4323 34.3481 34.8679 35.6781L18.7809 49.3595V70.1834H41.9665V60.0832L49.8836 53.3501C56.6399 47.6071 60.515 39.2309 60.515 30.3686C60.515 13.7432 46.9937 0.217529 30.3737 0.217529V0.217529Z" fill="url(#paint1_linear)"/>
<defs>
<linearGradient id="paint0_linear" x1="30.3736" y1="75.9818" x2="30.3736" y2="99.1749" gradientUnits="userSpaceOnUse">
<stop stop-color="#DB00FF"/>
<stop offset="1" stop-color="#9E00FF" stop-opacity="0.61"/>
</linearGradient>
<linearGradient id="paint1_linear" x1="30.3737" y1="0.217529" x2="30.3737" y2="70.1834" gradientUnits="userSpaceOnUse">
<stop stop-color="#DB00FF"/>
<stop offset="1" stop-color="#9E00FF" stop-opacity="0.61"/>
</linearGradient>
</defs>
</svg>

<svg width="61" height="100" fill="none" xmlns="http://www.w3.org/2000/svg"><path d="M30.374 99.175c6.402 0 11.592-5.192 11.592-11.597 0-6.404-5.19-11.596-11.592-11.596-6.403 0-11.593 5.192-11.593 11.596 0 6.405 5.19 11.597 11.593 11.597z" fill="#24C1D8"/><path d="M30.374 99.175c6.402 0 11.592-5.192 11.592-11.597 0-6.404-5.19-11.596-11.592-11.596-6.403 0-11.593 5.192-11.593 11.596 0 6.405 5.19 11.597 11.593 11.597z" fill="url(#paint0_linear)"/><path d="M30.374.218C13.754.218.232 13.743.232 30.368v2.9h23.186v-2.9c0-3.836 3.12-6.957 6.956-6.957 3.835 0 6.955 3.12 6.955 6.958a6.96 6.96 0 01-2.461 5.31L18.78 49.358v20.824h23.186v-10.1l7.917-6.733A30.116 30.116 0 0060.515 30.37C60.515 13.743 46.994.218 30.374.218z" fill="#24C1D8"/><path d="M30.374.218C13.754.218.232 13.743.232 30.368v2.9h23.186v-2.9c0-3.836 3.12-6.957 6.956-6.957 3.835 0 6.955 3.12 6.955 6.958a6.96 6.96 0 01-2.461 5.31L18.78 49.358v20.824h23.186v-10.1l7.917-6.733A30.116 30.116 0 0060.515 30.37C60.515 13.743 46.994.218 30.374.218z" fill="url(#paint1_linear)"/><defs><linearGradient id="paint0_linear" x1="30.374" y1="75.982" x2="30.374" y2="99.175" gradientUnits="userSpaceOnUse"><stop stop-color="#DB00FF"/><stop offset="1" stop-color="#9E00FF" stop-opacity=".61"/></linearGradient><linearGradient id="paint1_linear" x1="30.374" y1=".218" x2="30.374" y2="70.183" gradientUnits="userSpaceOnUse"><stop stop-color="#DB00FF"/><stop offset="1" stop-color="#9E00FF" stop-opacity=".61"/></linearGradient></defs></svg>
